; generated by PrusaSlicer 2.6.1+win64 on 2023-10-10 at 16:11:50 UTC


;
;

;
;

;
;
; 

; external perimeters extrusion width = 0.50mm
; perimeters extrusion width = 0.50mm
; infill extrusion width = 0.50mm
; solid infill extrusion width = 0.50mm
; top infill extrusion width = 0.45mm
; first layer extrusion width = 0.50mm

M73 P0 R55
M201 X2500 Y2500 Z200 E2500 ; sets maximum accelerations, mm/sec^2
M203 X200 Y200 Z40 E100 ; sets maximum feedrates, mm / sec
M204 P2000 R1200 T2000 ; sets acceleration (P, T) and retract acceleration (R), mm/sec^2
M205 X8.00 Y8.00 Z2.00 E10.00 ; sets the jerk limits, mm/sec
M205 S0 T0 ; sets the minimum extruding and travel feed rate, mm/sec
;TYPE:Custom
M17 ; enable steppers
M862.3 P "MK4" ; printer model check
M862.1 P0.4 ; nozzle diameter check
M555 X76 Y61 W98 H84

G90 ; use absolute coordinates
M83 ; extruder relative mode

M140 S60 ; set bed temp

M104 S170 ; set extruder temp for bed leveling
M109 R170 ; wait for temp


M84 E ; turn off E motor

G28 ; home all without mesh bed level

G1 X42 Y-4 Z5 F4800

M302 S160 ; lower cold extrusion limit to 160C


G1 E-2 F2400 ; retraction


M84 E ; turn off E motor

G29 P9 X10 Y-4 W32 H4

M106 S100

G0 Z40 F10000

M190 S60 ; wait for bed temp

M107

;
; MBL
;
M84 E ; turn off E motor
G29 P1 ; invalidate mbl & probe print area
G29 P1 X0 Y0 W50 H20 C ; probe near purge place
G29 P3.2 ; interpolate mbl probes
G29 P3.13 ; extrapolate mbl outside probe area
G29 A ; activate mbl

; prepare for purge
M104 S215
G0 X0 Y-4 Z15 F4800 ; move away and ready for the purge
M109 S215

G92 E0
M569 S0 E ; set spreadcycle mode for extruder

;
; Extrude purge line
;
G92 E0 ; reset extruder position
G1 E2 F2400 ; deretraction after the initial one before nozzle cleaning
G0 E7 X15 Z0.2 F500 ; purge
G0 X25 E4 F500 ; purge
G0 X35 E4 F650 ; purge
G0 X45 E4 F800 ; purge
G0 X48 Z0.05 F8000 ; wipe, move close to the bed
G0 X51 Z0.2 F8000 ; wipe, move quickly away from the bed

G92 E0
M221 S100 ; set flow to 100%
G21 ; set units to millimeters
G90 ; use absolute coordinates
M83 ; use relative distances for extrusion
M900 K0.05 ; Filament gcode



M142 S36 ; set heatbreak target temp
M107
;LAYER_CHANGE
;Z:0.2
;HEIGHT:0.2
;BEFORE_LAYER_CHANGE
G92 E0.0
;0.2


G1 E-.8 F2100
G1 Z.2 F720
;AFTER_LAYER_CHANGE
;0.2
; printing object battery_pack_base v1.stl id:0 copy 0
G1 Z.4
G1 X173.093 Y144.093 F12000
G1 Z.2 F720
G1 E.8 F1500
M204 P600
;TYPE:Perimeter
;WIDTH:0.499999
G1 F1200
G1 X76.907 Y144.093 E3.65567
G1 X76.907 Y65.907 E2.97156
G1 X173.093 Y65.907 E3.65567
G1 X173.093 Y144.033 E2.96928
M204 P1000
G1 X173.55 Y144.55 F12000
M204 P600
;TYPE:External perimeter
G1 F1200
G1 X76.45 Y144.55 E3.69041
G1 X76.45 Y65.45 E3.0063
G1 X173.55 Y65.45 E3.69041
G1 X173.55 Y144.49 E3.00402
M204 P1000
G1 X173.16 Y144.46 F12000
M73 P0 R54
G1 E-.64 F2100
;WIPE_START
G1 F9600
G1 X172.78 Y144.49 E-.16
;WIPE_END
G1 Z.4 F720
G1 X171.961 Y66.113 F12000
G1 Z.2 F720
M73 P1 R54
G1 E.8 F1500
M204 P600
;TYPE:Solid infill
;WIDTH:0.501062
G1 F1200
G1 X172.682 Y66.833 E.03882
G1 X172.682 Y67.481 E.02469
G1 X171.519 Y66.318 E.06266
G1 X170.871 Y66.318 E.02469
G1 X172.682 Y68.129 E.09757
G1 X172.682 Y68.777 E.02469
G1 X170.223 Y66.318 E.13248
G1 X169.575 Y66.318 E.02469
G1 X172.682 Y69.425 E.16739
G1 X172.682 Y70.073 E.02469
G1 X168.927 Y66.318 E.2023
G1 X168.279 Y66.318 E.02469
G1 X172.682 Y70.721 E.23721
G1 X172.682 Y71.369 E.02469
G1 X167.631 Y66.318 E.27212
G1 X166.983 Y66.318 E.02469
G1 X172.682 Y72.017 E.30703
G1 X172.682 Y72.665 E.02469
G1 X166.335 Y66.318 E.34194
G1 X165.688 Y66.318 E.02465
G1 X172.682 Y73.312 E.37679
G1 X172.682 Y73.96 E.02469
G1 X165.04 Y66.318 E.41171
G1 X164.392 Y66.318 E.02469
G1 X172.682 Y74.608 E.44662
G1 X172.682 Y75.256 E.02469
G1 X163.744 Y66.318 E.48153
G1 X163.096 Y66.318 E.02469
G1 X172.682 Y75.904 E.51644
G1 X172.682 Y76.552 E.02469
G1 X162.448 Y66.318 E.55135
G1 X161.8 Y66.318 E.02469
G1 X172.682 Y77.2 E.58626
G1 X172.682 Y77.848 E.02469
G1 X161.152 Y66.318 E.62117
G1 X160.504 Y66.318 E.02469
G1 X172.682 Y78.496 E.65608
G1 X172.682 Y79.144 E.02469
G1 X159.856 Y66.318 E.69099
G1 X159.208 Y66.318 E.02469
G1 X172.682 Y79.792 E.7259
G1 X172.682 Y80.439 E.02465
G1 X158.561 Y66.318 E.76075
G1 X157.913 Y66.318 E.02469
G1 X172.682 Y81.087 E.79567
G1 X172.682 Y81.735 E.02469
G1 X157.265 Y66.318 E.83058
G1 X156.617 Y66.318 E.02469
G1 X172.682 Y82.383 E.86549
G1 X172.682 Y83.031 E.02469
G1 X155.969 Y66.318 E.9004
G1 X155.321 Y66.318 E.02469
G1 X172.682 Y83.679 E.93531
G1 X172.682 Y84.327 E.02469
G1 X154.673 Y66.318 E.97022
G1 X154.025 Y66.318 E.02469
G1 X172.682 Y84.975 E1.00513
G1 X172.682 Y85.623 E.02469
G1 X153.377 Y66.318 E1.04004
G1 X152.729 Y66.318 E.02469
G1 X172.682 Y86.271 E1.07495
G1 X172.682 Y86.919 E.02469
G1 X152.081 Y66.318 E1.10986
G1 X151.434 Y66.318 E.02465
G1 X172.682 Y87.566 E1.14471
G1 X172.682 Y88.214 E.02469
M73 P2 R54
G1 X150.786 Y66.318 E1.17962
G1 X150.138 Y66.318 E.02469
G1 X172.682 Y88.862 E1.21454
G1 X172.682 Y89.51 E.02469
G1 X149.49 Y66.318 E1.24945
G1 X148.842 Y66.318 E.02469
G1 X172.682 Y90.158 E1.28436
G1 X172.682 Y90.806 E.02469
G1 X148.194 Y66.318 E1.31927
G1 X147.546 Y66.318 E.02469
G1 X172.682 Y91.454 E1.35418
G1 X172.682 Y92.102 E.02469
M73 P2 R53
G1 X146.898 Y66.318 E1.38909
G1 X146.25 Y66.318 E.02469
G1 X172.682 Y92.75 E1.424
G1 X172.682 Y93.398 E.02469
G1 X145.602 Y66.318 E1.45891
G1 X144.954 Y66.318 E.02469
G1 X172.682 Y94.046 E1.49382
G1 X172.682 Y94.693 E.02465
G1 X144.307 Y66.318 E1.52867
G1 X143.659 Y66.318 E.02469
G1 X172.682 Y95.341 E1.56358
G1 X172.682 Y95.989 E.02469
G1 X143.011 Y66.318 E1.5985
G1 X142.363 Y66.318 E.02469
G1 X172.682 Y96.637 E1.63341
G1 X172.682 Y97.285 E.02469
G1 X141.715 Y66.318 E1.66832
G1 X141.067 Y66.318 E.02469
G1 X172.682 Y97.933 E1.70323
G1 X172.682 Y98.581 E.02469
G1 X140.419 Y66.318 E1.73814
G1 X139.771 Y66.318 E.02469
G1 X172.682 Y99.229 E1.77305
G1 X172.682 Y99.877 E.02469
G1 X139.123 Y66.318 E1.80796
G1 X138.475 Y66.318 E.02469
M73 P3 R53
G1 X172.682 Y100.525 E1.84287
G1 X172.682 Y101.173 E.02469
G1 X137.827 Y66.318 E1.87778
G1 X137.18 Y66.318 E.02465
G1 X172.682 Y101.82 E1.91263
G1 X172.682 Y102.468 E.02469
G1 X136.532 Y66.318 E1.94754
G1 X135.884 Y66.318 E.02469
G1 X172.682 Y103.116 E1.98246
G1 X172.682 Y103.764 E.02469
G1 X135.236 Y66.318 E2.01737
G1 X134.588 Y66.318 E.02469
G1 X172.682 Y104.412 E2.05228
G1 X172.682 Y105.06 E.02469
G1 X133.94 Y66.318 E2.08719
G1 X133.292 Y66.318 E.02469
G1 X172.682 Y105.708 E2.1221
G1 X172.682 Y106.356 E.02469
G1 X132.644 Y66.318 E2.15701
G1 X131.996 Y66.318 E.02469
G1 X172.682 Y107.004 E2.19192
G1 X172.682 Y107.652 E.02469
G1 X131.348 Y66.318 E2.22683
G1 X130.7 Y66.318 E.02469
G1 X172.682 Y108.3 E2.26174
G1 X172.682 Y108.947 E.02465
M73 P4 R53
G1 X130.053 Y66.318 E2.29659
G1 X129.405 Y66.318 E.02469
M73 P4 R52
G1 X172.682 Y109.595 E2.3315
G1 X172.682 Y110.243 E.02469
G1 X128.757 Y66.318 E2.36642
G1 X128.109 Y66.318 E.02469
G1 X172.682 Y110.891 E2.40133
G1 X172.682 Y111.539 E.02469
G1 X127.461 Y66.318 E2.43624
G1 X126.813 Y66.318 E.02469
G1 X172.682 Y112.187 E2.47115
G1 X172.682 Y112.835 E.02469
G1 X126.165 Y66.318 E2.50606
G1 X125.517 Y66.318 E.02469
G1 X172.682 Y113.483 E2.54097
G1 X172.682 Y114.131 E.02469
G1 X124.869 Y66.318 E2.57588
G1 X124.221 Y66.318 E.02469
G1 X172.682 Y114.779 E2.61079
G1 X172.682 Y115.427 E.02469
G1 X123.573 Y66.318 E2.6457
G1 X122.925 Y66.318 E.02469
M73 P5 R52
G1 X172.682 Y116.075 E2.68061
G1 X172.682 Y116.722 E.02465
G1 X122.278 Y66.318 E2.71546
G1 X121.63 Y66.318 E.02469
G1 X172.682 Y117.37 E2.75038
G1 X172.682 Y118.018 E.02469
G1 X120.982 Y66.318 E2.78529
G1 X120.334 Y66.318 E.02469
G1 X172.682 Y118.666 E2.8202
G1 X172.682 Y119.314 E.02469
G1 X119.686 Y66.318 E2.85511
G1 X119.038 Y66.318 E.02469
G1 X172.682 Y119.962 E2.89002
G1 X172.682 Y120.61 E.02469
G1 X118.39 Y66.318 E2.92493
G1 X117.742 Y66.318 E.02469
M73 P5 R51
G1 X172.682 Y121.258 E2.95984
G1 X172.682 Y121.906 E.02469
M73 P6 R51
G1 X117.094 Y66.318 E2.99475
G1 X116.446 Y66.318 E.02469
G1 X172.682 Y122.554 E3.02966
G1 X172.682 Y123.202 E.02469
G1 X115.798 Y66.318 E3.06457
G1 X115.151 Y66.318 E.02465
G1 X172.682 Y123.849 E3.09942
G1 X172.682 Y124.497 E.02469
G1 X114.503 Y66.318 E3.13434
G1 X113.855 Y66.318 E.02469
G1 X172.682 Y125.145 E3.16925
G1 X172.682 Y125.793 E.02469
G1 X113.207 Y66.318 E3.20416
G1 X112.559 Y66.318 E.02469
G1 X172.682 Y126.441 E3.23907
G1 X172.682 Y127.089 E.02469
M73 P7 R51
G1 X111.911 Y66.318 E3.27398
G1 X111.263 Y66.318 E.02469
G1 X172.682 Y127.737 E3.30889
G1 X172.682 Y128.385 E.02469
G1 X110.615 Y66.318 E3.3438
G1 X109.967 Y66.318 E.02469
G1 X172.682 Y129.033 E3.37871
G1 X172.682 Y129.681 E.02469
G1 X109.319 Y66.318 E3.41362
G1 X108.671 Y66.318 E.02469
G1 X172.682 Y130.329 E3.44853
G1 X172.682 Y130.976 E.02465
M73 P7 R50
G1 X108.024 Y66.318 E3.48338
G1 X107.376 Y66.318 E.02469
G1 X172.682 Y131.624 E3.5183
G1 X172.682 Y132.272 E.02469
M73 P8 R50
G1 X106.728 Y66.318 E3.55321
G1 X106.08 Y66.318 E.02469
G1 X172.682 Y132.92 E3.58812
G1 X172.682 Y133.568 E.02469
G1 X105.432 Y66.318 E3.62303
G1 X104.784 Y66.318 E.02469
G1 X172.682 Y134.216 E3.65794
G1 X172.682 Y134.864 E.02469
G1 X104.136 Y66.318 E3.69285
G1 X103.488 Y66.318 E.02469
G1 X172.682 Y135.512 E3.72776
G1 X172.682 Y136.16 E.02469
G1 X102.84 Y66.318 E3.76267
G1 X102.192 Y66.318 E.02469
M73 P9 R50
G1 X172.682 Y136.808 E3.79758
G1 X172.682 Y137.456 E.02469
G1 X101.544 Y66.318 E3.83249
G1 X100.897 Y66.318 E.02465
G1 X172.682 Y138.103 E3.86734
G1 X172.682 Y138.751 E.02469
G1 X100.249 Y66.318 E3.90225
G1 X99.601 Y66.318 E.02469
M73 P9 R49
G1 X172.682 Y139.399 E3.93717
G1 X172.682 Y140.047 E.02469
G1 X98.953 Y66.318 E3.97208
G1 X98.305 Y66.318 E.02469
G1 X172.682 Y140.695 E4.00699
G1 X172.682 Y141.343 E.02469
M73 P10 R49
G1 X97.657 Y66.318 E4.0419
G1 X97.009 Y66.318 E.02469
G1 X172.682 Y141.991 E4.07681
G1 X172.682 Y142.639 E.02469
G1 X96.361 Y66.318 E4.11172
G1 X95.713 Y66.318 E.02469
G1 X172.682 Y143.287 E4.14663
G1 X172.682 Y143.682 E.01505
G1 X172.428 Y143.682 E.00968
G1 X95.065 Y66.318 E4.16788
G1 X94.417 Y66.318 E.02469
G1 X171.781 Y143.682 E4.16791
M73 P11 R49
G1 X171.133 Y143.682 E.02469
G1 X93.77 Y66.318 E4.16788
G1 X93.122 Y66.318 E.02469
G1 X170.485 Y143.682 E4.16788
M73 P11 R48
G1 X169.837 Y143.682 E.02469
G1 X92.474 Y66.318 E4.16788
G1 X91.826 Y66.318 E.02469
G1 X169.189 Y143.682 E4.16788
G1 X168.541 Y143.682 E.02469
G1 X91.178 Y66.318 E4.16788
G1 X90.53 Y66.318 E.02469
G1 X167.893 Y143.682 E4.16788
G1 X167.245 Y143.682 E.02469
M73 P12 R48
G1 X89.882 Y66.318 E4.16788
G1 X89.234 Y66.318 E.02469
G1 X166.597 Y143.682 E4.16788
G1 X165.949 Y143.682 E.02469
G1 X88.586 Y66.318 E4.16788
G1 X87.938 Y66.318 E.02469
G1 X165.301 Y143.682 E4.16788
G1 X164.654 Y143.682 E.02465
G1 X87.29 Y66.318 E4.16791
G1 X86.642 Y66.318 E.02469
G1 X164.006 Y143.682 E4.16791
G1 X163.358 Y143.682 E.02469
M73 P13 R48
G1 X85.995 Y66.318 E4.16788
G1 X85.347 Y66.318 E.02469
M73 P13 R47
G1 X162.71 Y143.682 E4.16788
G1 X162.062 Y143.682 E.02469
G1 X84.699 Y66.318 E4.16788
G1 X84.051 Y66.318 E.02469
G1 X161.414 Y143.682 E4.16788
G1 X160.766 Y143.682 E.02469
G1 X83.403 Y66.318 E4.16788
G1 X82.755 Y66.318 E.02469
G1 X160.118 Y143.682 E4.16788
G1 X159.47 Y143.682 E.02469
M73 P14 R47
G1 X82.107 Y66.318 E4.16788
G1 X81.459 Y66.318 E.02469
G1 X158.822 Y143.682 E4.16788
G1 X158.174 Y143.682 E.02469
G1 X80.811 Y66.318 E4.16788
G1 X80.163 Y66.318 E.02469
G1 X157.526 Y143.682 E4.16788
G1 X156.879 Y143.682 E.02465
G1 X79.515 Y66.318 E4.16791
G1 X78.868 Y66.318 E.02465
G1 X156.231 Y143.682 E4.16788
G1 X155.583 Y143.682 E.02469
M73 P15 R46
G1 X78.22 Y66.318 E4.16788
G1 X77.572 Y66.318 E.02469
G1 X154.935 Y143.682 E4.16788
G1 X154.287 Y143.682 E.02469
G1 X77.318 Y66.713 E4.14663
G1 X77.318 Y67.361 E.02469
G1 X153.639 Y143.682 E4.11172
G1 X152.991 Y143.682 E.02469
G1 X77.318 Y68.009 E4.07681
G1 X77.318 Y68.657 E.02469
G1 X152.343 Y143.682 E4.0419
G1 X151.695 Y143.682 E.02469
M73 P16 R46
G1 X77.318 Y69.305 E4.00699
G1 X77.318 Y69.953 E.02469
G1 X151.047 Y143.682 E3.97208
G1 X150.399 Y143.682 E.02469
G1 X77.318 Y70.601 E3.93717
G1 X77.318 Y71.248 E.02465
G1 X149.752 Y143.682 E3.90231
G1 X149.104 Y143.682 E.02469
G1 X77.318 Y71.896 E3.8674
G1 X77.318 Y72.544 E.02469
M73 P16 R45
G1 X148.456 Y143.682 E3.83249
G1 X147.808 Y143.682 E.02469
M73 P17 R45
G1 X77.318 Y73.192 E3.79758
G1 X77.318 Y73.84 E.02469
G1 X147.16 Y143.682 E3.76267
G1 X146.512 Y143.682 E.02469
G1 X77.318 Y74.488 E3.72776
G1 X77.318 Y75.136 E.02469
G1 X145.864 Y143.682 E3.69285
G1 X145.216 Y143.682 E.02469
G1 X77.318 Y75.784 E3.65794
G1 X77.318 Y76.432 E.02469
G1 X144.568 Y143.682 E3.62303
G1 X143.92 Y143.682 E.02469
G1 X77.318 Y77.08 E3.58812
G1 X77.318 Y77.728 E.02469
M73 P18 R45
G1 X143.272 Y143.682 E3.55321
G1 X142.625 Y143.682 E.02465
G1 X77.318 Y78.375 E3.51835
G1 X77.318 Y79.023 E.02469
G1 X141.977 Y143.682 E3.48344
G1 X141.329 Y143.682 E.02469
G1 X77.318 Y79.671 E3.44853
G1 X77.318 Y80.319 E.02469
M73 P18 R44
G1 X140.681 Y143.682 E3.41362
G1 X140.033 Y143.682 E.02469
G1 X77.318 Y80.967 E3.37871
G1 X77.318 Y81.615 E.02469
G1 X139.385 Y143.682 E3.3438
G1 X138.737 Y143.682 E.02469
M73 P19 R44
G1 X77.318 Y82.263 E3.30889
G1 X77.318 Y82.911 E.02469
G1 X138.089 Y143.682 E3.27398
G1 X137.441 Y143.682 E.02469
G1 X77.318 Y83.559 E3.23907
G1 X77.318 Y84.207 E.02469
G1 X136.793 Y143.682 E3.20416
G1 X136.145 Y143.682 E.02469
G1 X77.318 Y84.855 E3.16925
G1 X77.318 Y85.502 E.02465
G1 X135.498 Y143.682 E3.13439
G1 X134.85 Y143.682 E.02469
G1 X77.318 Y86.15 E3.09948
G1 X77.318 Y86.798 E.02469
M73 P20 R44
G1 X134.202 Y143.682 E3.06457
G1 X133.554 Y143.682 E.02469
G1 X77.318 Y87.446 E3.02966
G1 X77.318 Y88.094 E.02469
G1 X132.906 Y143.682 E2.99475
G1 X132.258 Y143.682 E.02469
M73 P20 R43
G1 X77.318 Y88.742 E2.95984
G1 X77.318 Y89.39 E.02469
G1 X131.61 Y143.682 E2.92493
G1 X130.962 Y143.682 E.02469
G1 X77.318 Y90.038 E2.89002
G1 X77.318 Y90.686 E.02469
G1 X130.314 Y143.682 E2.85511
G1 X129.666 Y143.682 E.02469
G1 X77.318 Y91.334 E2.8202
G1 X77.318 Y91.982 E.02469
M73 P21 R43
G1 X129.018 Y143.682 E2.78529
G1 X128.371 Y143.682 E.02465
G1 X77.318 Y92.629 E2.75043
G1 X77.318 Y93.277 E.02469
G1 X127.723 Y143.682 E2.71552
G1 X127.075 Y143.682 E.02469
G1 X77.318 Y93.925 E2.68061
G1 X77.318 Y94.573 E.02469
G1 X126.427 Y143.682 E2.6457
G1 X125.779 Y143.682 E.02469
G1 X77.318 Y95.221 E2.61079
G1 X77.318 Y95.869 E.02469
G1 X125.131 Y143.682 E2.57588
G1 X124.483 Y143.682 E.02469
G1 X77.318 Y96.517 E2.54097
G1 X77.318 Y97.165 E.02469
G1 X123.835 Y143.682 E2.50606
G1 X123.187 Y143.682 E.02469
M73 P22 R43
G1 X77.318 Y97.813 E2.47115
G1 X77.318 Y98.461 E.02469
G1 X122.539 Y143.682 E2.43624
G1 X121.891 Y143.682 E.02469
M73 P22 R42
G1 X77.318 Y99.109 E2.40133
G1 X77.318 Y99.757 E.02469
G1 X121.243 Y143.682 E2.36642
G1 X120.596 Y143.682 E.02465
G1 X77.318 Y100.404 E2.33156
G1 X77.318 Y101.052 E.02469
G1 X119.948 Y143.682 E2.29665
G1 X119.3 Y143.682 E.02469
G1 X77.318 Y101.7 E2.26174
G1 X77.318 Y102.348 E.02469
G1 X118.652 Y143.682 E2.22683
G1 X118.004 Y143.682 E.02469
G1 X77.318 Y102.996 E2.19192
G1 X77.318 Y103.644 E.02469
G1 X117.356 Y143.682 E2.15701
G1 X116.708 Y143.682 E.02469
M73 P23 R42
G1 X77.318 Y104.292 E2.1221
G1 X77.318 Y104.94 E.02469
G1 X116.06 Y143.682 E2.08719
G1 X115.412 Y143.682 E.02469
G1 X77.318 Y105.588 E2.05228
G1 X77.318 Y106.236 E.02469
G1 X114.764 Y143.682 E2.01737
G1 X114.116 Y143.682 E.02469
G1 X77.318 Y106.884 E1.98246
G1 X77.318 Y107.531 E.02465
G1 X113.469 Y143.682 E1.9476
G1 X112.821 Y143.682 E.02469
G1 X77.318 Y108.179 E1.91269
G1 X77.318 Y108.827 E.02469
G1 X112.173 Y143.682 E1.87778
G1 X111.525 Y143.682 E.02469
G1 X77.318 Y109.475 E1.84287
G1 X77.318 Y110.123 E.02469
G1 X110.877 Y143.682 E1.80796
G1 X110.229 Y143.682 E.02469
G1 X77.318 Y110.771 E1.77305
G1 X77.318 Y111.419 E.02469
G1 X109.581 Y143.682 E1.73814
G1 X108.933 Y143.682 E.02469
M73 P24 R41
G1 X77.318 Y112.067 E1.70323
G1 X77.318 Y112.715 E.02469
G1 X108.285 Y143.682 E1.66832
G1 X107.637 Y143.682 E.02469
G1 X77.318 Y113.363 E1.63341
G1 X77.318 Y114.011 E.02469
G1 X106.989 Y143.682 E1.5985
